;FLAVOR:Marlin
;TIME:2298.62
;Filament used:1.593m
;Layer height: 0.2
;MINX:107.682
;MINY:86.829
;MINZ:0.2
;MAXX:112.318
;MAXY:133.171
;MAXZ:50.8
;OuterWall Time:1215.55
;InnerWall Time:679.349
;Skin Time:44.5522
;Support Time:0
;SkirtBrim Time:0
;Infill Time:147.43
;InfillSupport Time:0
;Combing Time:207.447
;Retraction Time:4.2929
;PrimeTower Time:0

;
;
;
;
;
;
;
;
;
;
;
;
;
;
;
;
;
;
;
;
;
;
;
;
;
;
;
;
;
;
;
;
;
;
;
;
;
;
;
;
;
;
;
;
;
;
;
;
;
;
;
;Creality Print GCode Generated by CXEngine
;CRSLICE_GIT_HASH:87dd5d0
;Creality Print Version : V4.3.6.6231
;CXEngine Release Time:2023-07-21 16:32:51
;Gcode Generated Time:2023-12-25 19:40:36
;----------Machine Config--------------
;Machine Name:Ender-3 V3 SE
;Machine Height:250
;Machine Width:220
;Machine Depth:220
;Material Type:PLA
;Material Name:CR-PLA_1.75
;Number of Extruders:1
;ExtruderParams[0] Nozzle Diameter:1000
;----------Profile Config---------------
;Layer Height:0.2
;Wall Thickness:0.8
;Top/Bottom Thickness:0.8
;Out Wall Line Width:0.4
;Inner Wall Line Width:0.4
;Inital Layer Height:200
;Wall Line Count:2
;Infill Line Distance:8
;Infill Pattern:grid
;Infill Sparse Density:10
;Infill Wipe Distance:0
;Print Temperature:205
;Bed Temperature:60
;Support Enable:false
;Support Density:15
;Support Angle:60
;Adhesion Type:autobrim
;machine is belt:false
;machine belt offset:10
;machine belt offset Y:0
;Raft Base Line Spacing:1.6
;Wait Heatup Sync:true
;Enable Ironing:false
;Material Type:PLA
;Max volumetric speed:20
;----------Shell Config----------------
;Outer Wall Wipe Distance:200
;Outer Inset First:false
;Infill Before Walls:false
;Infill Overlap:0.04
;Fill Gaps Between Walls:everywhere
;Minimum Infill Area:15
;Top Surface Skin Layer:0
;Top Layers:4
;Z Seam Alignment:sharpest_corner
;Seam Corner Preference:z_seam_corner_inner
;Z Seam X:110
;Z Seam Y:220
;Horizontal Expansion:0
;Top/Bottom Pattern:zigzag
;Ironing Pattern:zigzag
;Vase Model:false
;----------Support Config----------------
;Support Type:everywhere
;Support Pattern:zigzag
;Support Infill Layer Thickness:0.15
;Minimum Support Area:5
;Enable Support Roof:true
;Support Roof Thickness:0.8
;Support Roof Pattern:lines
;Connect Support Lines:0
;Connect Support ZigZags:1
;Minimum Support X/Y Distance:0.2
;Support Line Distance:2.67
; ---------PrintSpeed & Travel----------
;Enable Print Cool:true
;Avoid Printed Parts Traveling:true
;Enable Retraction:true
;Retraction Distance:0.8
;Retraction Speed:40
;Retraction Prime Speed:40
;Maximum Retraction Count:100
;Minimum Extrusion Distance Window:0.8
;Z Hop When Retracted:false
;Z Hop Height:0.2
;Retract Before Outer Wall:true

;Outer Wall Speed:60
;Inner Wall Speed:90
;Infill Speed:180
;Top/Bottom Speed:50
;Travel Speed:150
;Initial Layer Speed:30
;Skirt/Brim Speed:25
;Prime Tower Speed:60
;Outer Wall Acceleration:1000
;Inner Wall Acceleration:2000
;Infill Acceleration:2500
;Top/Bottom Acceleration:2500
;Travel Acceleration:2500
;Initial Layer Print Acceleration:500
;Initial Layer Travel Acceleration:500
;Skirt/Brim Acceleration:500
;Combing Mode:noskin
; --------SpecialModel&Mesh Fixes--------
;Union Overlapping Volum:true
;Remove All Holes:false
;Maximum Travel Resolution:0.25
;Maximum Deviation:0.05
;Maximum Model Angle:0.872767
;IS Mold Print:false
;Make Overhang Printable:false
;Enable Coasting:false
;Coasting Volumes:0.064
;Coasting Speed:0.9
;Raft AirGap:0.25
;Layer0 ZOverLap:0.13
;---------------------End of Head--------------------------
M140 S60
M105
M190 S60
M104 S205
M82 ;absolute extrusion mode
M220 S100 ;Reset Feedrate
M221 S100 ;Reset Flowrate

G28 ;Home

G92 E0 ;Reset Extruder
G1 Z2.0 F3000 ;Move Z Axis up
G1 X10.1 Y20 Z0.28 F5000.0 ;Move to start position
M109 S205.000000
G1 X10.1 Y145.0 Z0.28 F1500.0 E15 ;Draw the first line
G1 X10.4 Y145.0 Z0.28 F5000.0 ;Move to side a little
G1 X10.4 Y20 Z0.28 F1500.0 E30 ;Draw the second line
G92 E0  ;Reset Extruder
G1 E-1.0000 F1800 ;Retract a bit
G1 Z2.0 F3000 ;Move Z Axis up
G1 E0.0000 F1800 

G92 E0
G92 E0
G1 F2400 E-0.8
;LAYER_COUNT:254

;LAYER:0
M106 S0
M106 P2 S0
M204 S500
;MESH:0_0
G0 F4800 X108.084 Y110.006 Z0.2
;TYPE:WALL-INNER
G1 F2400 E0
G1 F1800 X110 Y129.152 E0.6399
G1 X111.897 Y110.184 E1.27386
G1 X111.916 Y109.994 E1.28021
G1 X110 Y90.848 E1.92011
G1 X108.084 Y110.006 E2.56041
G0 F4800 X107.682 Y110.006
;TYPE:WALL-OUTER
G1 F1800 X110 Y133.171 E3.31916
G1 X112.295 Y110.224 E4.07076
G1 X112.318 Y109.994 E4.07829
G1 X110 Y86.829 E4.83703
G1 X107.682 Y110.006 E5.59616
G0 F4800 X107.701 Y110.205
G0 X108.466 Y110.01
;TYPE:SKIN
G1 F1800 X110 Y125.327 E6.1081
G1 X111.519 Y110.142 E6.61562
G1 X111.534 Y109.99 E6.62069
G1 X110 Y94.673 E7.13263
G1 X108.466 Y110.01 E7.64523
G0 F4800 X108.187 Y109.98
G0 X110 Y127.183
G0 X110.505 Y123.085
G0 X110.027 Y123.038
G1 F1800 X109.965 Y122.975 E7.64816
G1 X110.079 Y122.524
G1 X109.902 Y122.347 E7.65649
G1 X110.13 Y122.009
G1 X109.839 Y121.718 E7.67018
G1 X110.182 Y121.495
G1 X109.776 Y121.089 E7.68927
G1 X110.233 Y120.981
G1 X109.713 Y120.461 E7.71373
G1 X110.284 Y120.466
G1 X109.65 Y119.832 E7.74354
G1 X109.587 Y119.204
G1 X110.336 Y119.952 E7.77875
G1 X110.387 Y119.438
G1 X109.524 Y118.575 E7.81934
G1 X109.461 Y117.946
G1 X110.439 Y118.924 E7.86533
G1 X110.49 Y118.409
G1 X109.398 Y117.318 E7.91667
G1 X109.335 Y116.689
G1 X110.542 Y117.895 E7.97341
G1 X110.593 Y117.381
G1 X109.272 Y116.06 E8.03554
G1 X109.209 Y115.432
G1 X110.644 Y116.867 E8.10303
G1 X110.696 Y116.353
G1 X109.146 Y114.803 E8.17593
G1 X109.083 Y114.175
G1 X110.747 Y115.838 E8.25416
G1 X110.798 Y115.324
G1 X109.021 Y113.546 E8.33776
G1 X108.958 Y112.917
G1 X110.85 Y114.81 E8.42677
G1 X110.901 Y114.296
G1 X108.894 Y112.288 E8.52119
G1 X108.831 Y111.659
G1 X110.953 Y113.781 E8.62099
G1 X111.004 Y113.267
G1 X108.768 Y111.031 E8.72615
G1 X108.705 Y110.402
G1 X111.056 Y112.753 E8.83672
G1 X111.107 Y112.239
G1 X108.685 Y109.817 E8.95063
G1 X108.736 Y109.302
G1 X111.158 Y111.724 E9.06454
G1 X111.21 Y111.21
G1 X108.788 Y108.788 E9.17845
G1 X108.839 Y108.274
G1 X111.261 Y110.696 E9.29236
G1 X111.312 Y110.181
G1 X108.891 Y107.76 E9.40622
G1 X108.942 Y107.245
G1 X111.292 Y109.595 E9.51675
G1 X111.23 Y108.967
G1 X108.994 Y106.731 E9.62191
G1 X109.045 Y106.217
G1 X111.167 Y108.338 E9.72169
G1 X111.104 Y107.71
G1 X109.096 Y105.702 E9.81613
G1 X109.148 Y105.188
G1 X111.041 Y107.081 E9.90516
G1 X110.978 Y106.452
G1 X109.199 Y104.674 E9.9888
G1 X109.251 Y104.16
G1 X110.915 Y105.824 E10.06706
G1 X110.852 Y105.195
G1 X109.302 Y103.645 E10.13996
G1 X109.354 Y103.131
G1 X110.789 Y104.566 E10.20745
G1 X110.726 Y103.938
G1 X109.405 Y102.617 E10.26958
G1 X109.457 Y102.103
G1 X110.663 Y103.309 E10.3263
G1 X110.6 Y102.681
G1 X109.508 Y101.588 E10.37768
G1 X109.559 Y101.074
G1 X110.537 Y102.052 E10.42368
G1 X110.474 Y101.423
G1 X109.611 Y100.56 E10.46427
G1 X109.663 Y100.046
G1 X110.411 Y100.795 E10.49947
G1 X110.348 Y100.166
G1 X109.713 Y99.531 E10.52933
G1 X109.765 Y99.017
G1 X110.286 Y99.538 E10.55384
G1 X110.223 Y98.909
G1 X109.817 Y98.503 E10.57293
G1 X110.16 Y98.28
G1 X109.868 Y97.989 E10.58664
G1 X110.097 Y97.652
G1 X109.919 Y97.474 E10.59501
G1 X110.034 Y97.023
G1 X109.971 Y96.96 E10.59798
;MESH:NONMESH
G0 F600 X109.971 Y96.96 Z0.4
G0 F4800 X109.495 Y96.913
G0 X108.196 Y109.892
G0 X108.084 Y110.006
;TIME_ELAPSED:18.192810

;LAYER:1
M106 S127.5
M204 S1136
;TYPE:WALL-INNER
;MESH:0_0
G1 F3273.1 X110 Y129.152 E11.23788
G1 X111.897 Y110.184 E11.87183
G1 X111.916 Y109.994 E11.87818
G1 X110 Y90.848 E12.51809
G1 X108.084 Y110.006 E13.15839
M204 S1500
G0 F6900 X107.682 Y110.006
M204 S682
;TYPE:WALL-OUTER
G1 F2454.8 X107.721 Y110.404 E13.17142
G1 X109.96 Y132.773 E13.9041
G1 X110 Y133.171 E13.91713
G1 X112.295 Y110.224 E14.66873
G1 X112.318 Y109.994 E14.67626
G1 X112.278 Y109.595 E14.68933
G1 X110.039 Y87.226 E15.42201
G1 X110 Y86.829 E15.43501
G1 X109.96 Y87.226 E15.44801
G1 X107.721 Y109.607 E16.18108
G1 X107.682 Y110.006 E16.19414
M204 S1500
G0 F6900 X107.701 Y110.205
G0 X108.466 Y110.01
M204 S1364
;TYPE:SKIN
G1 F2182.1 X110 Y125.327 E16.70608
G1 X111.519 Y110.142 E17.21359
G1 X111.534 Y109.99 E17.21867
G1 X110 Y94.673 E17.73061
G1 X108.466 Y110.01 E18.2432
M204 S1500
G0 F6900 X108.187 Y109.98
G0 X109.322 Y121.375
G0 X109.999 Y121.309
M204 S1364
G1 F2182.1 X110.055 Y120.744 E18.26208
G1 X109.953 Y120.845 E18.26686
G1 X109.902 Y120.331 E18.28403
G1 X110.118 Y120.115 E18.29419
G1 X110.181 Y119.486 E18.31522
G1 X109.85 Y119.817 E18.33078
G1 X109.799 Y119.303 E18.34796
G1 X110.244 Y118.858 E18.36889
G1 X110.307 Y118.229 E18.38991
G1 X109.747 Y118.788 E18.41623
G1 X109.696 Y118.274 E18.4334
G1 X110.37 Y117.601 E18.46508
G1 X110.432 Y116.973 E18.48607
G1 X109.644 Y117.76 E18.5231
G1 X109.593 Y117.246 E18.54028
G1 X110.495 Y116.344 E18.5827
G1 X110.558 Y115.715 E18.60373
G1 X109.541 Y116.732 E18.65156
G1 X109.49 Y116.217 E18.66877
G1 X110.621 Y115.087 E18.72194
G1 X110.684 Y114.458 E18.74296
G1 X109.438 Y115.703 E18.80154
G1 X109.387 Y115.189 E18.81872
G1 X110.747 Y113.83 E18.88266
G1 X110.809 Y113.201 E18.90367
G1 X109.335 Y114.675 E18.973
G1 X109.284 Y114.161 E18.99018
G1 X110.872 Y112.573 E19.06486
G1 X110.935 Y111.944 E19.08589
G1 X109.233 Y113.646 E19.16593
G1 X109.181 Y113.132 E19.18311
G1 X110.998 Y111.316 E19.26855
G1 X111.061 Y110.687 E19.28957
G1 X109.129 Y112.618 E19.38041
G1 X109.078 Y112.104 E19.39759
G1 X111.137 Y110.045 E19.49443
G1 X111.085 Y109.532 E19.51157
G1 X109.026 Y111.59 E19.60839
G1 X108.975 Y111.075 E19.6256
G1 X111.033 Y109.018 E19.72237
G1 X110.981 Y108.504 E19.73955
G1 X108.924 Y110.561 E19.83629
G1 X108.872 Y110.047 E19.85347
G1 X110.93 Y107.99 E19.95024
G1 X110.878 Y107.475 E19.96745
G1 X108.926 Y109.427 E20.05926
G1 X108.989 Y108.798 E20.08028
G1 X110.827 Y106.961 E20.1667
G1 X110.776 Y106.447 E20.18388
G1 X109.052 Y108.171 E20.26496
G1 X109.115 Y107.542 E20.28598
G1 X110.724 Y105.933 E20.36166
G1 X110.672 Y105.419 E20.37884
G1 X109.177 Y106.913 E20.44913
G1 X109.24 Y106.285 E20.47012
G1 X110.621 Y104.904 E20.53507
G1 X110.57 Y104.39 E20.55224
G1 X109.303 Y105.656 E20.61181
G1 X109.366 Y105.027 E20.63283
G1 X110.518 Y103.876 E20.68699
G1 X110.467 Y103.362 E20.70417
G1 X109.429 Y104.4 E20.75299
G1 X109.491 Y103.771 E20.77401
G1 X110.415 Y102.847 E20.81746
G1 X110.363 Y102.333 E20.83464
G1 X109.554 Y103.142 E20.87269
G1 X109.617 Y102.514 E20.89368
G1 X110.312 Y101.819 E20.92637
G1 X110.261 Y101.305 E20.94355
G1 X109.68 Y101.885 E20.97085
G1 X109.743 Y101.256 E20.99187
G1 X110.209 Y100.791 E21.01376
G1 X110.158 Y100.276 E21.03097
G1 X109.805 Y100.629 E21.04758
G1 X109.868 Y100 E21.0686
G1 X110.106 Y99.762 E21.07979
G1 X110.054 Y99.248 E21.09697
G1 X109.931 Y99.371 E21.10276
G1 X109.999 Y98.69 E21.12552
M204 S1500
;MESH:NONMESH
G0 F600 X109.999 Y98.69 Z0.6
G0 F6900 X109.324 Y98.623
G0 X108.196 Y109.892
G0 X108.084 Y110.006
;TIME_ELAPSED:27.954364

;LAYER:2
M106 S255
M204 S1421
;TYPE:WALL-INNER
;MESH:0_0
G1 F3837.3 X110 Y129.152 E21.76542
G1 X111.897 Y110.184 E22.39937
G1 X111.916 Y109.994 E22.40573
G1 X110 Y90.848 E23.04563
G1 X108.084 Y110.006 E23.68593
M204 S2500
G0 F9000 X107.682 Y110.006
M204 S711
;TYPE:WALL-OUTER
G1 F2558.2 X107.721 Y110.404 E23.69896
G1 X109.96 Y132.773 E24.43164
G1 X110 Y133.171 E24.44467
G1 X112.295 Y110.224 E25.19627
G1 X112.318 Y109.994 E25.20381
G1 X112.278 Y109.595 E25.21688
G1 X110.039 Y87.226 E25.94955
G1 X110 Y86.829 E25.96255
G1 X109.96 Y87.226 E25.97556
G1 X107.721 Y109.607 E26.70862
G1 X107.682 Y110.006 E26.72168
M204 S2500
G0 F9000 X107.701 Y110.205
G0 X108.466 Y110.01
M204 S1777
;TYPE:SKIN
G1 F2131.8 X110 Y125.327 E27.23362
G1 X111.519 Y110.142 E27.74113
G1 X111.534 Y109.99 E27.74621
G1 X110 Y94.673 E28.25815
G1 X108.466 Y110.01 E28.77074
M204 S2500
G0 F9000 X108.187 Y109.98
G0 X109.322 Y121.375
G0 X109.999 Y121.309
M204 S1777
G1 F2131.8 X110.102 Y120.284 E28.805
G1 X109.873 Y120.056 E28.81575
G1 X109.81 Y119.427 E28.83677
G1 X110.153 Y119.77 E28.85291
G1 X110.205 Y119.256 E28.87009
G1 X109.747 Y118.798 E28.89163
G1 X109.684 Y118.17 E28.91262
G1 X110.256 Y118.741 E28.93949
G1 X110.307 Y118.227 E28.95667
G1 X109.622 Y117.541 E28.98891
G1 X109.559 Y116.913 E29.0099
G1 X110.359 Y117.713 E29.04753
G1 X110.411 Y117.199 E29.06471
G1 X109.496 Y116.284 E29.10774
G1 X109.433 Y115.655 E29.12876
G1 X110.462 Y116.684 E29.17716
G1 X110.513 Y116.17 E29.19434
G1 X109.37 Y115.027 E29.24809
G1 X109.307 Y114.398 E29.26912
G1 X110.565 Y115.656 E29.32828
G1 X110.616 Y115.141 E29.34549
G1 X109.244 Y113.769 E29.41002
G1 X109.181 Y113.141 E29.43101
G1 X110.667 Y114.627 E29.5009
G1 X110.719 Y114.113 E29.51808
G1 X109.118 Y112.512 E29.59338
G1 X109.055 Y111.884 E29.61437
G1 X110.77 Y113.598 E29.695
G1 X110.822 Y113.084 E29.71218
G1 X108.992 Y111.255 E29.79823
G1 X108.929 Y110.626 E29.81925
G1 X110.873 Y112.57 E29.91068
G1 X110.924 Y112.055 E29.92789
G1 X108.868 Y110 E30.02456
G1 X108.919 Y109.485 E30.04177
G1 X110.976 Y111.541 E30.13849
G1 X111.027 Y111.027 E30.15567
G1 X108.971 Y108.971 E30.25237
G1 X109.023 Y108.457 E30.26955
G1 X111.079 Y110.513 E30.36625
G1 X111.13 Y109.998 E30.38346
G1 X109.074 Y107.943 E30.48013
G1 X109.125 Y107.428 E30.49734
G1 X111.069 Y109.372 E30.58877
G1 X111.006 Y108.743 E30.60979
G1 X109.177 Y106.914 E30.69581
G1 X109.228 Y106.4 E30.71299
G1 X110.943 Y108.115 E30.79365
G1 X110.88 Y107.486 E30.81467
G1 X109.279 Y105.885 E30.88997
G1 X109.331 Y105.371 E30.90715
G1 X110.817 Y106.857 E30.97704
G1 X110.754 Y106.229 E30.99803
G1 X109.383 Y104.857 E31.06253
G1 X109.433 Y104.342 E31.07974
G1 X110.691 Y105.6 E31.13891
G1 X110.628 Y104.972 E31.1599
G1 X109.485 Y103.828 E31.21368
G1 X109.537 Y103.314 E31.23086
G1 X110.566 Y104.343 E31.27925
G1 X110.503 Y103.714 E31.30028
G1 X109.588 Y102.799 E31.34331
G1 X109.639 Y102.285 E31.36049
G1 X110.44 Y103.086 E31.39816
G1 X110.377 Y102.457 E31.41918
G1 X109.691 Y101.771 E31.45145
G1 X109.742 Y101.257 E31.46862
G1 X110.314 Y101.829 E31.49553
G1 X110.251 Y101.2 E31.51655
G1 X109.793 Y100.742 E31.53809
G1 X109.845 Y100.228 E31.55527
G1 X110.188 Y100.571 E31.5714
G1 X110.125 Y99.943 E31.59239
G1 X109.897 Y99.714 E31.60314
G1 X109.999 Y98.69 E31.63736
G1 X109.948 Y99.2
G1 X110.062 Y99.314 E31.64272
M204 S2500
;;retract;;
G1 F2400 E31.08272
G1 F4500 X110.065 Y101.314 E30.85472
G1 F2400 E30.84272
G0 F9000 X110.74 Y99.248
G0 X110 Y92.817
G0 X108.263 Y110.179
G0 X109.26 Y120.75
G1 F2400 E31.64272
G0 F9000 X109.936 Y120.684
M204 S1777
G1 F2131.8 X110.051 Y120.799 E31.64813
M204 S2500
;MESH:NONMESH
G0 F600 X110.051 Y120.799 Z0.8
G0 F9000 X110.727 Y120.866
G0 X110 Y127.183
G0 X108.196 Y109.892
G0 X108.084 Y110.006
;TIME_ELAPSED:37.808728

;LAYER:3
M204 S1372
;TYPE:WALL-INNER
;MESH:0_0
G1 F3703.6 X110 Y129.152 E32.28804
G1 X111.897 Y110.184 E32.92199
G1 X111.916 Y109.994 E32.92834
G1 X110 Y90.848 E33.56824
G1 X108.084 Y110.006 E34.20854
M204 S2500
G0 F9000 X107.682 Y110.006
M204 S686
;TYPE:WALL-OUTER
G1 F2469.1 X107.721 Y110.404 E34.22158
G1 X109.96 Y132.773 E34.95425
G1 X110 Y133.171 E34.96729
G1 X112.295 Y110.224 E35.71889
G1 X112.318 Y109.994 E35.72642
G1 X112.278 Y109.595 E35.73949
G1 X110.039 Y87.226 E36.47216
G1 X110 Y86.829 E36.48516
G1 X109.96 Y87.226 E36.49817
G1 X107.721 Y109.607 E37.23123
G1 X107.682 Y110.006 E37.2443
M204 S2500
G0 F9000 X107.701 Y110.205
G0 X108.466 Y110.01
M204 S1715
;TYPE:SKIN
G1 F2057.6 X110 Y125.327 E37.75623
G1 X111.519 Y110.142 E38.26375
G1 X111.534 Y109.99 E38.26883
G1 X110 Y94.673 E38.78076
G1 X108.466 Y110.01 E39.29336
M204 S2500
